X: 11202
T: Bonny Lad lay your Pipes down
%R: air, waltz
B: James Oswald "The Caledonian Pocket Companion" v.1 b.1 p.20 #2
Z: 2020 John Chambers <jc:trillian.mit.edu>
M: 3/4
L: 1/8
K: Dm
%%slurgraces 1
%%graceslurs 1
|:\
D4 E2 | F3 G A2 | (A2 d2) ^c2 | d4 (=c/d/e) |\
f2 c2 (d/e/)f | (dc)(BA)(GF) | FG (TG3 F/G/) |1 A>BAGFE :|2 A4 |]
(ef) |\
g4 (f/g/a) | g2 {g}fe{e}dc | f3 dTc>A | {A}G4 F/G/A/d/|\
c4 (d/e/f) | {e}dc{c}BA{A}GF | (G/A/)B TE3 G | F4
(ef) |\
g4 (f/g/a) | g2 {g}fe{e}dc | (fg) (Tg3 f/g/) | a4 A2 |\
d3 fed | {d}^c2 (BA) d^c | de Te3 d | d4 :|


